X:9
T: ES FREIT DER WILDE WASSERMANN
N: E0001H
O: Europa, Mitteleuropa, Deutschland, Pommern, Tantow, Rossow
R: Sage, Maerchen -, Zauber - Lied
M: 4/4
L: 1/8
K: A
E2 | A2A2BAB2 | c3BA2z2 |
c3de2f2 | ecedc2
c2 | e2B2dcBA | BAGFE2
FG | A3EC2E2 | A4z2
c2 | e2B2dcBA | BAGFE2
FG | A3EC2E2 | A4z2

@@@ Tune index: 3659
